build/assets/img/svg/scissors.svg

<svg width="50" height="69" viewBox="0 0 50 69" fill="none" xmlns="http://www.w3.org/2000/svg">
<path d="M38.5581 46.3462C37.3532 46.3462 36.1483 46.5872 34.9435 47.0691L30.2445 41.5267L40.9678 13.5737L40.9678 13.4533C41.0883 13.0918 43.1366 4.17576 36.8712 0.199683C36.5098 -0.0412842 36.0278 -0.0412919 35.6664 0.0791992C35.3049 0.199683 34.9435 0.561148 34.823 0.922606L24.4611 32.2492L12.4124 1.52504C12.2919 1.16358 11.9304 0.922607 11.569 0.681632C11.2075 0.561149 10.7256 0.561149 10.4846 0.802124C7.83387 2.36845 3.8578 7.06745 7.5929 14.0557L18.7982 41.7677L14.3402 47.5511C13.1353 47.1896 11.9304 47.0691 10.7256 47.0691C4.70121 47.1896 -0.118274 52.2501 0.00221325 58.2744C0.122701 64.2988 5.18316 69.1183 11.2075 68.9978C17.2319 68.8773 22.0513 63.8168 21.9309 57.7925C21.9309 55.6237 21.2079 53.5754 20.0031 51.8886C19.5211 51.2862 18.6777 51.1657 18.0753 51.5272C17.4728 52.0091 17.3523 52.8525 17.7138 53.455C18.6777 54.7803 19.1597 56.3466 19.1597 57.913C19.2801 62.4915 15.6655 66.2266 11.087 66.3471C6.50851 66.4676 2.77342 62.8529 2.65293 58.2744C2.53244 53.6959 6.14705 49.9608 10.7256 49.8403C11.9304 49.8403 13.1353 50.0813 14.2197 50.5633C14.5811 50.6838 14.9426 50.6838 15.3041 50.5633C15.6655 50.4428 15.9065 50.2018 16.027 49.8403L21.3284 42.9726C21.5694 42.6111 21.6899 42.1292 21.4489 41.6472L10.0026 13.0918L10.0026 12.9713C7.71338 8.51329 9.27971 5.74209 10.6051 4.29624L23.2562 36.8277C23.4972 37.3097 23.9791 37.6712 24.5816 37.6712C25.184 37.6712 25.666 37.3097 25.7864 36.7073L36.6303 3.8143C39.281 6.94696 38.3171 12.1279 38.1966 12.8508L27.3528 41.4063C27.2323 41.8882 27.2323 42.3702 27.5937 42.7316L33.2566 49.3584C33.3771 49.7199 33.7386 49.9608 33.9796 50.0813C34.341 50.2018 34.7025 50.2018 35.0639 49.9608C36.1483 49.4789 37.3532 49.1174 38.5581 49.1174C43.1366 48.9969 46.8717 52.6115 46.9922 57.1901C47.1126 61.7686 43.498 65.5037 38.9195 65.6242C34.341 65.7446 30.6059 62.13 30.4854 57.5515C30.4854 55.9852 30.8469 54.4189 31.6903 52.973C31.9313 52.4911 31.9313 51.8886 31.5698 51.4067L26.5094 45.2618C26.0274 44.6594 25.184 44.5389 24.5816 45.0209C23.9791 45.5028 23.8586 46.3462 24.3406 46.9487L29.0396 52.3706C28.1962 53.9369 27.8347 55.7442 27.9552 57.5515C28.0757 63.5759 33.1362 68.3954 39.1605 68.2749C45.1849 68.1544 50.0043 63.0939 49.8838 57.0696C49.6429 50.9247 44.7029 46.1052 38.5581 46.3462Z" fill="#444444"/>
</svg>

<svg width="50" height="69" fill="none" xmlns="http://www.w3.org/2000/svg"><path d="M38.558 46.346c-1.205 0-2.41.241-3.614.723l-4.7-5.542 10.724-27.953v-.12c.12-.362 2.169-9.278-4.097-13.254-.361-.241-.843-.241-1.205-.12-.361.12-.722.481-.843.843L24.461 32.249 12.412 1.525c-.12-.361-.482-.602-.843-.843-.362-.12-.843-.12-1.084.12-2.651 1.566-6.627 6.265-2.892 13.254l11.205 27.712-4.458 5.783c-1.205-.361-2.41-.482-3.614-.482C4.7 47.19-.118 52.25.002 58.274c.12 6.025 5.181 10.844 11.205 10.724 6.025-.12 10.844-5.181 10.724-11.206 0-2.168-.723-4.217-1.928-5.903a1.504 1.504 0 00-1.928-.362 1.504 1.504 0 00-.361 1.928 7.571 7.571 0 011.446 4.458c.12 4.579-3.495 8.314-8.073 8.434-4.578.12-8.314-3.494-8.434-8.073-.12-4.578 3.494-8.313 8.073-8.434 1.204 0 2.41.241 3.494.723.361.12.723.12 1.084 0 .361-.12.602-.361.723-.723l5.301-6.867c.241-.362.362-.844.12-1.326L10.004 13.092v-.12c-2.29-4.459-.723-7.23.602-8.676l12.651 32.532c.241.482.723.843 1.326.843.602 0 1.084-.361 1.204-.964L36.63 3.814c2.651 3.133 1.687 8.314 1.567 9.037L27.353 41.406c-.12.482-.12.964.24 1.326l5.664 6.626c.12.362.482.603.723.723.361.12.723.12 1.084-.12 1.084-.482 2.29-.844 3.494-.844 4.579-.12 8.314 3.495 8.434 8.073.12 4.579-3.494 8.314-8.072 8.434-4.579.12-8.314-3.494-8.435-8.072 0-1.567.362-3.133 1.205-4.579.241-.482.241-1.084-.12-1.566l-5.06-6.145c-.483-.603-1.326-.723-1.928-.241-.603.482-.723 1.325-.241 1.928l4.699 5.422c-.844 1.566-1.205 3.373-1.085 5.18.12 6.025 5.181 10.844 11.206 10.724 6.024-.12 10.843-5.181 10.723-11.205-.241-6.145-5.181-10.965-11.326-10.724z" fill="#444"/></svg>
